X:1
T:Arrane Ghelby
L:1/8
M:3/4
I:linebreak $
K:Emin
V:1 treble 
V:1
 B | e3/2fe/ | d3/2ef/ | ga g | f3/2ed/ | e2 e | d3/2cB/ | Bc d | e2 :| z |: g>g a/b/ | g>g a/b/ | %12
 ga>b |$ ba g | f>f g/a/ | f>f g/a/ | gf e | d3 | e3/2ef/ | g3/2fe/ | d>c B | g>g f/e/ | d>c B | %23
 g>g f/e/ | d>c B |$ Bc d | e3 :| %27
